!!!SOCIAL_FUNCTION:	songs of the hand-game
!!!PDT:	1936
!!!OTL: No_40_Like_a_Crow.krn
!!!REG: Oklahoma and Montana
!!!LANG: Tone
!!!LING_GROUP: Algonquin
**kern	**kern
*staff2	*staff1
=1-	=1-
*clefF4	*clefF4
*k[b-]	*k[b-]
*M2/4	*M2/4
4GG/	4r
4GG/	8.F\L
.	16c\Jk
=2!|:	=2!|:
4GG/	4c\
4GG/	(8.c\L
.	16A\Jk)
=3	=3
*M3/4	*M3/4
2.r	8.c\L
.	16F\Jk
.	8F\
.	8r
.	8.F\L
.	16c\Jk
=4	=4
*M2/4	*M2/4
2r	4c\
.	(8.c\L
.	16A\Jk)
=5	=5
*M3/4	*M3/4
2.r	8.c\L
.	16F\Jk
.	4F\
.	8.G\L
.	16F\Jk
=6	=6
2.r	8F\L
.	8F\J
.	4F\
.	8G\L
.	8F\J
=7	=7
2.r	8F\L
.	8F\J
.	8F\
.	8r
.	8.G\L
.	16F\Jk
=8	=8
2.r	8F\L
.	8F\J
.	4F\
.	8G\L
.	8F\J
=9	=9
*M2/4	*M2/4
2r	8F\L
.	8F\J
.	8F\
.	8r
=10	=10
2r	(8c^\L
.	8A\J)
.	(8c^\L
.	8A\J)
=11	=11
*M3/4	*M3/4
2.r	4F\
.	4F\
.	8D\
.	8r
=12	=12
2.r	8F\L
.	8D\J
.	4D\
.	8F\L
.	8F\J
=13	=13
2.r	8F\L
.	8F\J
.	4F\
.	8F\
.	8r
=14	=14
2.r	8F\L
.	8D\J
.	4D\
.	8F\L
.	8F\J
=15	=15
*M2/4	*M2/4
2r	8F\L
.	8F\J
.	4F\
=16	=16
2r	8F\
.	8r
.	8.F\L
.	16c\Jk
=17:|!	=17:|!
=	=
2r	8F\
.	8r
.	4r
==	==
*-	*-
